docs/assets/img/tips/long-arrow.svg

<svg width="173" height="12" viewBox="0 0 173 12" fill="none" xmlns="http://www.w3.org/2000/svg">
<path d="M1 5C0.447715 5 4.82823e-08 5.44772 0 6C-4.82823e-08 6.55228 0.447715 7 1 7L1 5ZM172.774 6.00002L167 0.226512L161.227 6.00001L167 11.7735L172.774 6.00002ZM6.92857 7C7.48086 7 7.92857 6.55229 7.92857 6C7.92857 5.44772 7.48086 5 6.92857 5L6.92857 7ZM18.7857 5C18.2334 5 17.7857 5.44772 17.7857 6C17.7857 6.55229 18.2334 7 18.7857 7L18.7857 5ZM30.6429 7C31.1951 7 31.6429 6.55229 31.6429 6C31.6429 5.44772 31.1951 5 30.6429 5L30.6429 7ZM42.5 5C41.9477 5 41.5 5.44772 41.5 6C41.5 6.55229 41.9477 7 42.5 7L42.5 5ZM54.3571 7C54.9094 7 55.3571 6.55229 55.3571 6C55.3571 5.44772 54.9094 5 54.3571 5L54.3571 7ZM66.2143 5.00001C65.662 5.00001 65.2143 5.44772 65.2143 6.00001C65.2143 6.55229 65.662 7.00001 66.2143 7.00001L66.2143 5.00001ZM78.0714 7.00001C78.6237 7.00001 79.0714 6.55229 79.0714 6.00001C79.0714 5.44772 78.6237 5.00001 78.0714 5.00001L78.0714 7.00001ZM89.9286 5.00001C89.3763 5.00001 88.9286 5.44772 88.9286 6.00001C88.9286 6.55229 89.3763 7.00001 89.9286 7.00001L89.9286 5.00001ZM101.786 7.00001C102.338 7.00001 102.786 6.55229 102.786 6.00001C102.786 5.44772 102.338 5.00001 101.786 5.00001L101.786 7.00001ZM113.643 5.00001C113.091 5.00001 112.643 5.44772 112.643 6.00001C112.643 6.55229 113.091 7.00001 113.643 7.00001L113.643 5.00001ZM125.5 7.00001C126.052 7.00001 126.5 6.5523 126.5 6.00001C126.5 5.44773 126.052 5.00001 125.5 5.00001L125.5 7.00001ZM137.357 5.00001C136.805 5.00001 136.357 5.44773 136.357 6.00001C136.357 6.5523 136.805 7.00001 137.357 7.00001L137.357 5.00001ZM149.214 7.00001C149.767 7.00001 150.214 6.5523 150.214 6.00001C150.214 5.44773 149.767 5.00001 149.214 5.00001L149.214 7.00001ZM161.071 5.00001C160.519 5.00001 160.071 5.44773 160.071 6.00001C160.071 6.5523 160.519 7.00001 161.071 7.00001L161.071 5.00001ZM1 7L6.92857 7L6.92857 5L1 5L1 7ZM18.7857 7L30.6429 7L30.6429 5L18.7857 5L18.7857 7ZM42.5 7L54.3571 7L54.3571 5L42.5 5L42.5 7ZM66.2143 7.00001L78.0714 7.00001L78.0714 5.00001L66.2143 5.00001L66.2143 7.00001ZM89.9286 7.00001L101.786 7.00001L101.786 5.00001L89.9286 5.00001L89.9286 7.00001ZM113.643 7.00001L125.5 7.00001L125.5 5.00001L113.643 5.00001L113.643 7.00001ZM137.357 7.00001L149.214 7.00001L149.214 5.00001L137.357 5.00001L137.357 7.00001ZM161.071 7.00001L167 7.00001L167 5.00001L161.071 5.00001L161.071 7.00001Z" fill="#794187"/>
</svg>

<svg width="173" height="12" fill="none" xmlns="http://www.w3.org/2000/svg"><path d="M1 5a1 1 0 000 2V5zm171.774 1L167 .227 161.227 6 167 11.774 172.774 6zM6.929 7a1 1 0 100-2v2zm11.857-2a1 1 0 100 2V5zm11.857 2a1 1 0 000-2v2zM42.5 5a1 1 0 100 2V5zm11.857 2a1 1 0 100-2v2zm11.857-2a1 1 0 100 2V5zm11.857 2a1 1 0 100-2v2zM89.93 5a1 1 0 100 2V5zm11.857 2a1 1 0 000-2v2zm11.857-2a1 1 0 000 2V5zM125.5 7a1 1 0 000-2v2zm11.857-2a1 1 0 000 2V5zm11.857 2a1 1 0 100-2v2zm11.857-2a1 1 0 000 2V5zM1 7h5.929V5H1v2zm17.786 0h11.857V5H18.786v2zM42.5 7h11.857V5H42.5v2zm23.714 0h11.857V5H66.214v2zM89.93 7h11.857V5H89.929v2zm23.714 0H125.5V5h-11.857v2zm23.714 0h11.857V5h-11.857v2zm23.714 0H167V5h-5.929v2z" fill="#794187"/></svg>
